app/images/dist/dollar.svg

<svg width="24" height="24" viewBox="0 0 24 24" fill="none" xmlns="http://www.w3.org/2000/svg">
<g clip-path="url(#clip0_1112_3642)">
<path d="M10 9.5C10 8.83455 10.717 8 12 8C12.7222 8 13.3152 8.28985 13.6574 8.66952C14.0272 9.07975 14.6595 9.11256 15.0697 8.74279C15.48 8.37303 15.5128 7.74071 15.143 7.33048C14.5982 6.72607 13.8451 6.29942 13 6.10996V5C13 4.44772 12.5523 4 12 4C11.4477 4 11 4.44772 11 5V6.11339C9.36836 6.48651 8 7.75286 8 9.5C8 11.596 9.96932 13 12 13C13.283 13 13.9998 13.8345 13.9998 14.5C13.9998 15.1655 13.2829 16 11.9998 16C11.2776 16 10.6846 15.7101 10.3424 15.3305C9.97264 14.9202 9.34033 14.8874 8.9301 15.2572C8.51986 15.627 8.48706 16.2593 8.85682 16.6695C9.40165 17.274 10.1548 17.7006 11 17.8901V19C11 19.5523 11.4477 20 12 20C12.5523 20 13 19.5523 13 19V17.8866C14.6316 17.5134 15.9998 16.2471 15.9998 14.5C15.9998 12.404 14.0307 11 12 11C10.717 11 10 10.1655 10 9.5Z" fill="black"/>
<path fill-rule="evenodd" clip-rule="evenodd" d="M24 12C24 18.6274 18.6274 24 12 24C5.37258 24 0 18.6274 0 12C0 5.37258 5.37258 0 12 0C18.6274 0 24 5.37258 24 12ZM22 12C22 17.5228 17.5228 22 12 22C6.47715 22 2 17.5228 2 12C2 6.47715 6.47715 2 12 2C17.5228 2 22 6.47715 22 12Z" fill="black"/>
</g>
<defs>
<clipPath id="clip0_1112_3642">
<rect width="24" height="24" fill="white"/>
</clipPath>
</defs>
</svg>

<svg width="24" height="24" fill="none" xmlns="http://www.w3.org/2000/svg"><g clip-path="url(#a)" fill="#000"><path d="M10 9.5c0-.665.717-1.5 2-1.5.722 0 1.315.29 1.657.67a1 1 0 0 0 1.486-1.34C14.598 6.726 13.845 6.3 13 6.11V5a1 1 0 1 0-2 0v1.113c-1.632.374-3 1.64-3 3.387 0 2.096 1.97 3.5 4 3.5 1.283 0 2 .835 2 1.5s-.717 1.5-2 1.5c-.722 0-1.315-.29-1.658-.67a1 1 0 1 0-1.485 1.34c.545.604 1.298 1.03 2.143 1.22V19a1 1 0 1 0 2 0v-1.113c1.632-.374 3-1.64 3-3.387 0-2.096-1.97-3.5-4-3.5-1.283 0-2-.835-2-1.5Z"/><path fill-rule="evenodd" clip-rule="evenodd" d="M24 12c0 6.627-5.373 12-12 12S0 18.627 0 12 5.373 0 12 0s12 5.373 12 12Zm-2 0c0 5.523-4.477 10-10 10S2 17.523 2 12 6.477 2 12 2s10 4.477 10 10Z"/></g><defs><clipPath id="a"><path fill="#fff" d="M0 0h24v24H0z"/></clipPath></defs></svg>
